heytea.svg

<svg viewBox="0 0 24 24" xmlns="http://www.w3.org/2000/svg"><path d="M9.22391 9.77491C9.28076 9.66593 9.39462 9.5946 9.50096 9.48161C10.126 8.81752 9.38431 8.61773 8.91506 8.27766C8.69064 8.1149 8.71427 8.08611 8.82863 7.98894C9.02834 7.81916 9.27374 7.6965 9.51621 7.55027C10.2798 7.08962 10.5555 6.80176 11.0528 6.24501C11.2329 6.04329 11.5509 5.58664 11.6929 5.33437L11.736 5.26706L12.1718 5.64293C12.5047 5.97877 13.0917 6.48439 13.4369 6.76574C14.0634 7.2758 14.5107 7.68576 15.2083 8.17899C15.4128 8.32371 15.6249 8.46392 15.8506 8.60713C16.2717 8.87459 16.7813 9.12292 17.2348 9.34956C17.3527 9.40835 17.4718 9.46907 17.5891 9.53044C17.8288 9.65554 17.8166 9.67337 17.9157 9.57713C18.0067 9.48905 18.0656 9.38071 18.1608 9.28705C18.5031 8.95085 19.0509 9.13939 19.362 9.47022C19.5536 9.6743 19.5723 9.92457 19.5159 10.1997C19.4501 10.5195 19.2885 10.6945 19.0945 10.8342C18.8842 10.9859 18.2956 11.2339 18.007 11.3399C17.7162 11.4467 17.8413 11.396 17.59 11.445C17.5338 11.8916 17.8316 12.9071 18.0334 13.347C18.1181 13.5318 18.2248 13.6916 18.3029 13.8647C18.2489 13.9555 17.7422 14.2788 17.3604 14.9857C17.0618 15.5388 16.967 15.9539 16.894 16.5812L12.8808 16.5878C12.8836 16.427 12.9194 16.2954 12.9045 16.1109C12.8725 15.7051 12.6268 15.3813 12.3366 15.1573C11.8929 14.8142 11.503 14.7535 10.9226 14.5412C10.2362 14.2898 9.59183 13.7827 9.27618 13.1405C9.15817 12.9001 9.05914 12.6597 9.03343 12.3518C9.25849 12.3391 9.5016 12.2888 9.72387 12.2522C10.094 12.1909 10.653 12.1771 10.8451 11.8354C10.9504 11.6479 10.9537 11.4069 10.8617 11.206C10.6554 10.7557 10.0468 10.4109 9.64045 10.1208C9.39899 9.94849 9.4088 9.96181 9.22391 9.77491M3.64845 10.5528L4.20692 9.54734C4.34298 9.62081 4.47753 9.72214 4.6095 9.80585C4.7457 9.89228 4.87524 9.97814 5.00979 10.0646C5.27796 10.2368 5.53331 10.4063 5.79912 10.5786C5.84574 10.6089 7.34019 11.5539 7.38201 11.6204L6.1056 13.142C6.05576 13.2044 6.01001 13.2553 5.9616 13.3137L4.54985 15.0038C4.36031 15.2318 4.1737 15.447 3.98794 15.6774C3.72536 16.0032 3.40363 16.3607 3.14462 16.6866C3.09593 16.7479 3.0496 16.7976 3.00097 16.8588C2.96095 16.9091 2.90488 16.9801 2.86005 17.0162C2.29449 16.8658 1.91103 16.6468 1.46305 16.2902C1.26169 16.13 1.06878 15.9716 0.914038 15.7822C0.777768 15.6156 0.803188 15.6463 0.923203 15.4594C0.987937 15.3587 1.04136 15.2314 1.11354 15.13C1.19531 15.1595 1.29427 15.2477 1.48296 15.3083C1.91053 15.4459 2.37834 15.2721 2.57985 14.877C2.66685 14.7065 2.65282 14.6267 2.69499 14.4414C2.7255 14.3075 3.2806 14.2491 3.15586 13.3246C3.48211 13.2063 3.61816 12.8248 3.66779 12.5068C4.04709 12.3603 4.40184 12.0517 4.34247 11.515C4.30617 11.1869 4.10567 10.9166 3.88669 10.7235C3.84237 10.6845 3.81938 10.6657 3.77076 10.6336C3.72851 10.6056 3.67573 10.5804 3.64845 10.5528M1.79123 13.779L2.15364 13.1294C2.35744 13.2086 2.72607 13.4626 2.57412 13.7882C2.46528 14.0214 2.06542 14.064 1.79123 13.779M3.00892 11.5972C3.02067 11.5269 3.10602 11.3972 3.14562 11.3289C3.18937 11.253 3.23255 11.113 3.33331 11.141C3.44115 11.1711 3.68841 11.3713 3.74942 11.5355C3.86571 11.8482 3.5477 11.9923 3.42919 11.9823C3.37119 11.9773 3.25289 11.8257 3.21437 11.7829C3.15271 11.7147 3.06234 11.6664 3.00892 11.5972M2.39045 12.6898L2.75572 12.0414C2.87946 12.0843 3.21537 12.4528 3.06234 12.6851C3.00234 12.7765 2.88282 12.8547 2.72908 12.8602C2.65189 12.863 2.45124 12.7348 2.39045 12.6898M1.54469 14.218C1.71468 14.3307 1.90709 14.4114 2.11891 14.4642C2.1192 14.624 2.03499 14.7706 1.88124 14.7708C1.57798 14.7712 1.56775 14.6652 1.37054 14.5335C1.42854 14.4283 1.48669 14.3232 1.54469 14.218M4.68891 16.056C4.73181 15.9657 4.83199 15.8876 4.89479 15.8135C4.98759 15.7039 5.4423 15.1229 5.50725 15.0814L6.83865 16.5348C6.88498 16.5894 6.92035 16.6215 6.97062 16.677C7.02175 16.733 7.03894 16.7595 7.10145 16.8208C7.19039 16.9084 7.28219 17.0343 7.36919 17.1163L7.76898 17.5544C7.9137 17.7229 8.15587 17.9583 8.30375 18.1308C8.32766 18.1587 8.34184 18.1793 8.36683 18.2056L9.75423 19.7106C9.73583 19.7693 9.65849 19.8744 9.62176 19.9358L8.95044 21.0073C8.90231 21.0857 8.86408 21.145 8.81302 21.2265L8.67417 21.4356L7.66772 20.0893C7.33017 19.6364 7.00829 19.1966 6.67675 18.7459C6.34284 18.2919 6.00485 17.8541 5.67459 17.4001C5.42282 17.054 5.06944 16.5573 4.80656 16.222C4.77606 16.1828 4.7109 16.0987 4.68891 16.056M11.1603 6.47179C11.4152 6.38536 11.4983 6.65453 11.6463 6.77483C11.7865 6.88876 11.9492 7.00863 12.2059 7.01608C12.4049 7.02181 12.7754 6.90373 12.9234 6.96481C13.1076 7.04064 13.2344 7.61937 12.1432 7.53817C11.8632 7.51726 11.7443 7.46449 11.5422 7.34684C11.3385 7.2284 10.9623 6.95077 10.981 6.69707C10.9888 6.58915 11.0749 6.50079 11.1603 6.47179M8.74821 9.13059C8.69515 9.25626 8.38552 9.39983 8.39848 9.83155C8.41187 10.2777 9.1137 10.7062 9.4383 10.9288C9.57894 11.0255 9.98223 11.3123 10.032 11.4119C9.63758 11.494 8.68842 11.5254 8.41853 11.6918C8.32752 11.7476 8.25018 11.8352 8.24345 11.9861C8.22498 12.4033 8.29537 12.8451 8.44782 13.2152C8.78781 14.0414 9.53089 14.7982 10.3184 15.1472C11.4115 15.6319 13.023 15.6243 11.526 17.4756C11.4566 17.5619 11.3872 17.6454 11.3111 17.727C11.0482 18.0085 10.6026 18.58 10.3477 18.9048C10.3252 18.9334 10.3139 18.9486 10.295 18.9759C10.2862 18.9886 10.2843 18.9937 10.2721 19.0079C10.2695 19.011 10.2615 19.0198 10.2586 19.0225C10.2415 19.0392 10.2536 19.0298 10.2353 19.0416C10.0712 18.8964 9.86143 18.6387 9.70561 18.4708L9.376 18.1139C9.15373 17.8698 8.85692 17.574 8.6471 17.333C8.59734 17.2759 8.57764 17.249 8.51556 17.1899L6.66994 15.1917C6.62598 15.1396 6.58086 15.1017 6.53668 15.0504C6.48741 14.9935 6.46307 14.9665 6.40435 14.9081L6.14362 14.6191C6.09436 14.5651 6.04552 14.5361 6.01666 14.4751C6.08097 14.3838 6.15702 14.3002 6.22877 14.2101C6.44373 13.9404 6.6756 13.6877 6.89436 13.421C7.07188 13.2046 7.25705 12.9695 7.4529 12.7713C7.65097 12.5706 8.07811 12.0401 8.22419 11.8271C8.43923 11.5135 8.39132 11.3949 8.15752 11.1824C7.96833 11.0105 7.24524 10.5748 6.98165 10.4097C6.13833 9.88189 5.16926 9.16811 4.32994 8.69743C4.22647 8.63943 4.10151 8.55658 3.95107 8.62324C3.63979 8.76102 3.36295 9.45289 3.17233 9.79339C3.05482 10.0031 2.93832 10.2128 2.82324 10.4181C2.35844 11.2482 1.89542 12.0781 1.43599 12.9146C0.97383 13.7562 0.512103 14.5817 0.0578949 15.433C-0.198031 15.9128 0.458397 16.4836 0.781778 16.7537C0.828252 16.7925 0.868137 16.8258 0.918477 16.864C1.38056 17.2124 1.92099 17.5607 2.48848 17.7367C2.61637 17.7762 2.73832 17.8113 2.87545 17.8281C3.19009 17.8669 3.33016 17.6987 3.50781 17.4871C3.58759 17.3921 3.65074 17.3131 3.72973 17.2152C3.80384 17.1233 3.86829 17.0326 3.93861 16.9437C3.99675 16.8705 4.10388 16.7212 4.16367 16.6763C4.20155 16.7073 4.26127 16.8059 4.29858 16.8556L5.2587 18.1608C5.99017 19.1583 6.73947 20.1313 7.46171 21.1347L8.21939 22.1488C8.24882 22.1864 8.26529 22.2029 8.24345 22.2469C8.17156 22.3918 8.04137 22.5059 8.10969 22.7256C8.19161 22.9893 8.57342 23.1874 8.86866 22.7346C8.9533 22.6049 9.01904 22.4657 9.09458 22.3157C9.4504 21.609 10.3696 20.1916 10.8548 19.5474C11.1341 19.1765 11.4113 18.8127 11.7093 18.4668C11.9134 18.2301 12.1101 18.0151 12.2921 17.7593C12.3314 17.7041 12.5302 17.3948 12.5675 17.3797L16.8811 17.3729C16.8997 17.512 16.9001 17.6704 16.9149 17.8085C17.0759 19.3151 17.6915 20.8438 17.6218 22.3628C17.607 22.6768 17.6282 22.9414 17.9436 22.9804C18.2759 23.0217 18.3915 22.7855 18.4064 22.4861C18.4641 21.3273 18.1715 20.1965 17.9402 19.1343C17.7113 18.0829 17.4843 16.8228 17.8589 15.7836C18.0355 15.2941 18.3265 14.892 18.6123 14.6294C18.8375 14.422 18.9048 14.3865 19.1806 14.2505C19.8967 13.8977 20.3506 13.6785 21.0027 13.2021C21.3899 12.9193 21.7366 12.628 22.0387 12.316C22.1104 12.2422 22.1998 12.1582 22.267 12.0775C22.489 11.8112 22.709 11.5716 22.9031 11.2724C23.1572 10.8811 23.3722 10.5193 23.5697 10.0319C24.1505 8.59768 24.1481 6.67566 23.5336 5.18908C23.3336 4.70458 23.1181 4.34002 22.8607 3.95298C22.7348 3.7638 22.5911 3.5832 22.4492 3.41714C22.2999 3.24292 22.1447 3.06627 21.9857 2.91926C20.9688 1.97727 19.5904 1.28403 18.1005 1.06964C16.2967 0.809991 14.6183 1.24043 13.2328 2.27772C12.9564 2.48438 12.7012 2.70493 12.4579 2.94482C11.757 3.63619 11.3788 4.31955 10.852 5.16767C10.6652 5.46835 10.4637 5.72607 10.2415 5.98471C10.1176 6.12879 9.891 6.33036 9.7412 6.44515C9.47145 6.65231 9.17707 6.8493 8.87611 7.02209C8.52544 7.22317 7.97829 7.52621 7.95416 8.00699C7.94055 8.27752 8.05033 8.51082 8.22748 8.69249C8.34392 8.81179 8.46293 8.93402 8.60264 9.03091C8.65119 9.06463 8.70038 9.09185 8.74821 9.13059" fill="#070303"/></svg>

<svg viewBox="0 0 24 24" xmlns="http://www.w3.org/2000/svg"><path d="M9.224 9.775c.057-.11.17-.18.277-.293.625-.664-.117-.864-.586-1.204-.224-.163-.2-.192-.086-.29.2-.169.445-.292.687-.438.764-.46 1.04-.748 1.537-1.305.18-.202.498-.658.64-.91l.043-.068.436.376c.333.336.92.841 1.265 1.123.626.51 1.074.92 1.771 1.413.205.145.417.285.643.428.42.268.93.516 1.384.743.118.058.237.12.354.18.24.126.228.143.327.047.09-.088.15-.196.245-.29.342-.336.89-.148 1.201.183.192.204.21.455.154.73a.97.97 0 0 1-.421.634c-.21.152-.8.4-1.088.506-.29.107-.166.056-.417.105-.056.447.242 1.462.443 1.902.085.185.192.345.27.518-.054.09-.56.414-.943 1.12-.298.554-.393.969-.466 1.596l-4.013.007c.003-.161.038-.293.024-.477-.032-.406-.278-.73-.568-.954-.444-.343-.834-.403-1.414-.616-.687-.251-1.331-.758-1.647-1.4-.118-.24-.217-.481-.243-.79.225-.012.469-.062.69-.099.371-.061.93-.075 1.122-.417a.706.706 0 0 0 .017-.629c-.207-.45-.815-.795-1.222-1.085-.241-.173-.231-.16-.416-.346m-5.576.778.559-1.006c.136.074.27.175.402.259.137.086.266.172.4.259.269.172.524.341.79.514.047.03 1.541.975 1.583 1.041l-1.276 1.522c-.05.062-.096.113-.144.172l-1.412 1.69c-.19.228-.376.443-.562.673-.263.326-.584.684-.843 1.01-.05.06-.095.11-.144.172-.04.05-.096.121-.14.157-.567-.15-.95-.37-1.398-.726a3.522 3.522 0 0 1-.549-.508c-.136-.166-.11-.136.01-.323.064-.1.117-.228.19-.329.081.03.18.118.369.178.428.138.895-.036 1.097-.431.087-.17.073-.25.115-.436.03-.134.586-.192.46-1.116.327-.119.463-.5.513-.818.38-.147.734-.455.674-.992-.036-.328-.236-.598-.455-.792a.889.889 0 0 0-.116-.09c-.042-.027-.095-.053-.123-.08m-1.857 3.226.363-.65c.203.08.572.334.42.66-.109.232-.509.275-.783-.01m1.218-2.182c.012-.07.097-.2.137-.268.043-.076.087-.216.187-.188.108.03.355.23.416.395.117.312-.201.456-.32.446-.058-.005-.176-.156-.215-.2-.061-.067-.152-.116-.205-.185M2.39 12.69l.366-.649c.123.043.46.412.306.644a.415.415 0 0 1-.333.175c-.077.003-.278-.125-.339-.17m-.845 1.528c.17.113.362.193.574.246 0 .16-.084.307-.238.307-.303 0-.313-.106-.51-.238l.174-.315m3.144 1.838c.043-.09.143-.168.206-.243.093-.11.547-.69.612-.732l1.332 1.454c.046.054.081.087.132.142.05.056.068.082.13.144.09.087.181.213.268.295l.4.438c.145.169.387.404.535.577.024.028.038.048.063.075l1.387 1.505c-.018.058-.096.163-.132.225l-.672 1.071c-.048.079-.086.138-.137.22l-.139.209-1.006-1.347c-.338-.453-.66-.892-.991-1.343-.334-.454-.672-.892-1.002-1.346-.252-.346-.606-.843-.868-1.178a1.54 1.54 0 0 1-.118-.166m6.471-9.584c.255-.087.338.183.486.303.14.114.303.234.56.241.199.006.57-.112.717-.051.185.076.311.654-.78.573a1.164 1.164 0 0 1-.6-.191c-.204-.119-.58-.396-.562-.65a.272.272 0 0 1 .18-.225M8.747 9.13c-.053.125-.362.269-.35.7.014.447.716.875 1.04 1.098.14.096.544.383.594.483-.394.082-1.344.113-1.613.28a.344.344 0 0 0-.176.294c-.018.417.052.86.205 1.23.34.825 1.083 1.582 1.87 1.931 1.094.485 2.705.477 1.208 2.329-.07.086-.139.17-.215.251-.263.282-.708.853-.963 1.178a1.232 1.232 0 0 0-.053.07c-.009.014-.01.019-.023.033a.268.268 0 0 1-.013.015c-.018.016-.005.007-.024.019-.164-.146-.374-.403-.53-.571l-.329-.357c-.222-.244-.52-.54-.729-.781-.05-.057-.07-.084-.131-.143L6.67 15.192c-.044-.052-.09-.09-.133-.142a2.133 2.133 0 0 0-.133-.142l-.26-.289c-.05-.054-.098-.083-.127-.144.064-.091.14-.175.212-.265.215-.27.447-.522.665-.789.178-.216.363-.451.559-.65.198-.2.625-.73.771-.944.215-.313.167-.432-.066-.645-.19-.171-.913-.607-1.176-.772-.844-.528-1.813-1.242-2.652-1.713-.104-.058-.228-.14-.379-.074-.311.138-.588.83-.779 1.17l-.349.625c-.465.83-.928 1.66-1.387 2.497-.462.841-.924 1.667-1.378 2.518-.256.48.4 1.05.724 1.32.046.04.086.073.136.111.463.348 1.003.697 1.57.873.128.04.25.074.387.091.315.039.455-.13.633-.34.08-.096.143-.175.222-.273.074-.092.138-.182.209-.271.058-.073.165-.223.225-.268.038.031.097.13.135.18l.96 1.305c.731.997 1.48 1.97 2.203 2.974l.757 1.014c.03.037.046.054.024.098-.071.145-.202.259-.133.479.082.263.463.461.759.009.084-.13.15-.27.226-.42.355-.706 1.275-2.123 1.76-2.768.28-.37.556-.734.854-1.08.204-.237.401-.452.583-.708.04-.055.238-.364.276-.38l4.313-.006c.019.139.02.297.034.435.16 1.507.777 3.036.707 4.555-.015.314.006.578.322.617.332.042.448-.195.462-.494.058-1.159-.234-2.29-.466-3.352-.229-1.051-.456-2.311-.081-3.35.176-.49.467-.892.753-1.155.226-.207.293-.242.569-.378.716-.353 1.17-.572 1.822-1.049a8.002 8.002 0 0 0 1.036-.886c.071-.074.16-.158.228-.239.222-.266.442-.505.636-.805.254-.39.47-.753.667-1.24.58-1.434.578-3.356-.036-4.843a6.818 6.818 0 0 0-1.548-2.27A7.333 7.333 0 0 0 18.1 1.07c-1.803-.259-3.482.171-4.867 1.209a7.459 7.459 0 0 0-.775.667c-.701.691-1.08 1.375-1.606 2.223-.187.3-.388.558-.61.817a3.95 3.95 0 0 1-.5.46c-.27.207-.565.404-.866.577-.35.201-.898.504-.922.985a.903.903 0 0 0 .273.685c.117.12.236.242.376.339.048.034.097.06.145.1" fill="#070303"/></svg>
